src/assets/img/dots_three_vertical.svg

<svg fill="none" height="24" viewBox="0 0 24 24" width="24" xmlns="http://www.w3.org/2000/svg"><g fill="#fff" opacity=".7"><path d="m12.75 6c0 .41421-.3358.75-.75.75s-.75-.33579-.75-.75.3358-.75.75-.75.75.33579.75.75z" stroke="#fff" stroke-width="1.5"/><path d="m12.75 12c0 .4142-.3358.75-.75.75s-.75-.3358-.75-.75.3358-.75.75-.75.75.3358.75.75z" stroke="#fff" stroke-width="1.5"/><path d="m12 19.5c.8284 0 1.5-.6716 1.5-1.5s-.6716-1.5-1.5-1.5-1.5.6716-1.5 1.5.6716 1.5 1.5 1.5z"/></g></svg>

<svg width="24" height="24" viewBox="0 0 24 24" fill="none" xmlns="http://www.w3.org/2000/svg">
<g opacity="0.7">
<path d="M12.75 6C12.75 6.41421 12.4142 6.75 12 6.75C11.5858 6.75 11.25 6.41421 11.25 6C11.25 5.58579 11.5858 5.25 12 5.25C12.4142 5.25 12.75 5.58579 12.75 6Z" fill="white" stroke="white" stroke-width="1.5"/>
<path d="M12.75 12C12.75 12.4142 12.4142 12.75 12 12.75C11.5858 12.75 11.25 12.4142 11.25 12C11.25 11.5858 11.5858 11.25 12 11.25C12.4142 11.25 12.75 11.5858 12.75 12Z" fill="white" stroke="white" stroke-width="1.5"/>
<path d="M12 19.5C12.8284 19.5 13.5 18.8284 13.5 18C13.5 17.1716 12.8284 16.5 12 16.5C11.1716 16.5 10.5 17.1716 10.5 18C10.5 18.8284 11.1716 19.5 12 19.5Z" fill="white"/>
</g>
</svg>
